X: 1
T: Cuckoo Clock, The
M: 6/8
L: 1/8
R: jig
K: Dmaj
|: FED Add | Fdd efg | fed Add | Bcd gBB |
Add Fdd | edB Adf | age fdd | BdB GAB :|
|: faa gfe | fAA ded | BBB dGG | BGG Add |
Fdd edB | Add efg | age fdd | BdB GAB :|
